X:1
T:[ID 2-46a]
T:[ID 2-46a]
T:Bezeichnung standardisiert: Menuett Menuet 5.
T:Urheber unbekannt Datum in der hier transkribierten schriftlichen Quelle: 1767
C:Urheber unbekannt
C:Datum in der hier transkribierten schriftlichen Quelle: 1767
L:1/8
M:3/4
K:D
V:1 bass 
V:1
 D,4 D,,2 | D,4 D,,2 | D,2 G,2 A,2 | D,2 A,,2 D,,2 | G,4 G,,2 | D,4 D,,2 | D,4 D,,2 | %7
 A,2 E,2 A,,2 :: D,4 D,,2 | E,4 E,,2 | E,4 E,,2 | D,2 A,,2 D,,2 | G,4 G,,2 | D,4 D,,2 | %14
 G,2 A,2 A,,2 | D,2 A,,2 D,,2 :| %16

